X:1
T:The Stanger  "Irish Airs for the War Pipes No. 32"
M:6/8
L:1/8
Q:80
C:arr. G. De M.H. Orpen Palmer
S:March
K:HP
e | |: \
{g}A3/2{GdG}A/2{e}A{g}Ac{d}A | \
{g}B3/2{GdG}B/2{e}B{g}Bd{e}B | \
{g}A3/2{GdG}A/2{e}A{g}Aag |
{gfg}f2e{gfg}f3/2g/2a | \
{g}A3/2{GdG}A/2{e}A{G}Ac{d}A | \
{g}B3/2{GdG}B/2{e}B{gBd}B2e |
{ag}a3/2g/2f{gfg}f3/2e/2c | \
{g}A3/2{GdG}A/2{e}A{gAGAG}A2 :: \
f |
{gef}e3/2c/2{e}c{ag}a3/2c/2{e}c | \
{gBd}BcA{gBd}B2{g}f | \
{gef}e3/2c/2{e}c{gfg}f3/2e/2c |
{gfg}f2e{gfg}f3/2g/2a | \
{gef}e3/2c/2{e}c{ag}a3/2c/2{e}c | \
{gBd}BcA{gBd}B2e |
{ag}a3/2g/2f{gfg}f3/2e/2c | \
{g}A3/2{GdG}A/2{e}A{gAGAG}A2 :|
